src/assets/img/Close.svg

<?xml version="1.0" encoding="UTF-8"?>
<svg width="10px" height="10px" viewBox="0 0 10 10" version="1.1" xmlns="http://www.w3.org/2000/svg" xmlns:xlink="http://www.w3.org/1999/xlink">
    <!-- Generator: Sketch 41.2 (35397) - http://www.bohemiancoding.com/sketch -->
    <title>Icons/Close</title>
    <desc>Created with Sketch.</desc>
    <defs></defs>
    <g id="Symbols" stroke="none" stroke-width="1" fill="none" fill-rule="evenodd">
        <path d="M8.77938907,1.70804901 C9.16983819,1.3175999 9.1724999,0.68721853 8.77925295,0.293971575 L8.77925295,0.293971575 C8.38872866,-0.0965527166 7.75839112,-0.0993801573 7.36517551,0.293835451 L4.53661226,3.1223987 L1.70804901,0.293835451 C1.3175999,-0.0966136613 0.68721853,-0.0992753802 0.293971575,0.293971575 L0.293971575,0.293971575 C-0.0965527166,0.684495867 -0.0993801573,1.31483341 0.293835451,1.70804901 L3.1223987,4.53661226 L0.293835451,7.36517551 C-0.0966136613,7.75562462 -0.0992753802,8.38600599 0.293971575,8.77925295 L0.293971575,8.77925295 C0.684495867,9.16977724 1.31483341,9.17260468 1.70804901,8.77938907 L4.53661226,5.95082582 L7.36517551,8.77938907 C7.75562462,9.16983819 8.38600599,9.1724999 8.77925295,8.77925295 L8.77925295,8.77925295 C9.16977724,8.38872866 9.17260468,7.75839112 8.77938907,7.36517551 L5.95082582,4.53661226 L8.77938907,1.70804901 L8.77938907,1.70804901 Z" id="Icons/Close" fill="#FFFFFF"></path>
    </g>
</svg>

<svg width="10" height="10" viewBox="0 0 10 10" xmlns="http://www.w3.org/2000/svg"><title>Icons/Close</title><path d="M8.78 1.708c.39-.39.392-1.02 0-1.414-.39-.39-1.022-.393-1.415 0L4.537 3.122 1.707.294C1.318-.096.688-.1.295.294c-.39.39-.393 1.02 0 1.414l2.828 2.83L.294 7.364c-.39.39-.393 1.02 0 1.414.39.39 1.02.393 1.414 0l2.83-2.83 2.827 2.83c.39.39 1.02.392 1.414 0 .39-.39.393-1.022 0-1.415L5.95 4.537l2.83-2.83z" fill="#FFF" fill-rule="evenodd"/></svg>
